X:1
T:Most Perfect Is the Law of God
T:Most Perfect Is the Law of God
T:James McGrahanan (1840-1907)
T:The Psalter, 1912
T:Public Domain Courtesy of the Cyber Hymnal™
C:James McGrahanan (1840-1907)
Z:Public Domain
Z:Courtesy of the Cyber Hymnal™
%%score ( 1 2 ) ( 3 4 )
L:1/8
Q:1/4=110
M:6/8
K:F
V:1 treble 
V:2 treble 
V:3 bass 
V:4 bass 
V:1
 C | (CF)[FA] [FA]2 [FB] | [FA]2 [EG] [EG]2 C | (CE)[EG] B2 [GB] | ([GB]3 [FA]2) C | %5
w: 1.~Most|per- * fect is the|law of God, Re-|stor- * ing those that|stray; * His|
w: 2.~The|pre- * cepts of the|Lord are right; With|joy * they fill the|heart; * The|
w: 3.~The|fear * of God is|un- de- filed And|ev- * er shall en-|dure; * The|
w: 4.~They|warn * from ways of|wick- ed- ness Dis-|pleas- * ing to the|Lord, * And|
 (CF)[FA] [Fc]2 [_Ec] | [Dc]2 [DB] [DA]2 [DG] | (FE)[CF] [CA]2 [CG] | [C-G]3 [CF]3 || %9
w: tes- * ti- mo- ny|is most sure, Pro-|claim- * ing wis- dom’s|way. *|
w: Lord’s * com- mand- ments|all are pure, And|clear- * est light im-|part. *|
w: stat- * utes of the|Lord are truth And|right- * eous- ness most|pure. *|
w: in * the keep- ing|of His Word There|is * a great re-|ward. *|
"^Refrain" [Ac]3 [Ac]3 | [Ac][^G=B][Ac] [FA]3 | [FA]3 [FA]3 | [FA][F^G][FA] [CF]3 | %13
w: ||||
w: O how|I love Thy law!|O how|I love Thy law!|
w: ||||
w: ||||
 [DF][DF][DF] [CE]2 [=B,D] | [CE]3 [EG]3 | ([Ec]3 [Ec][Fd])[D=B] | [Ec]3- [Ec]3 | [Fc]3 [Fc]3 | %18
w: |||||
w: It is my med- i-|ta- tion|all * * the|day. *|O how|
w: |||||
w: |||||
 [Fc][F=B][Fc] [FA]3 | [_EA]3 [EF]3 | [DG][DF][B,D] [B,D]3 | [A,C][A,C][A,C] [CF]2 [FG] | %22
w: ||||
w: I love Thy law!|O how|I love Thy law!|It is my med- i-|
w: ||||
w: ||||
 [FA]2 [CF] [CG]2 [CF] | [CF]4- [CF] |] %24
w: ||
w: ta- tion all the|day. *|
w: ||
w: ||
V:2
 C | x6 | x5 C | x3 (EF) x | x5 C | x6 | x6 | C2 x4 | x6 || x6 | x6 | x6 | x6 | x6 | x6 | x6 | x6 | %17
 x6 | x6 | x6 | x6 | x6 | x6 | x5 |] %24
V:3
 [F,A,] | [F,A,]2 [F,C] [F,C]2 [F,D] | [C,C]2 [C,C] [C,C]2 C, | (E,G,)[C,B,] G,2 [E,C] | %4
 [F,C]3- [F,C]2 [F,A,] | [F,A,]2 [F,C] [F,A,]2 [A,,F,] | [B,,F,]2 [B,,F,] [B,,F,]2 [B,,B,] | %7
 (A,G,)[C,A,] [C,C]2 [C,B,] | [F,-B,]3 [F,A,]3 || z6 | z6 | [F,C]3 [F,C]3 | %12
 [F,C][F,=B,][F,C] [F,A,]3 | [D,A,][D,A,][D,A,] G,2 G, | [C,G,]3 [C,C]3 | z3 G,2 G, | %16
 [C,-G,]3 [C,B,]3 | [F,A,]3 [F,A,]3 | [F,A,][F,^G,][F,A,] [F,C]3 | [F,C]3 [A,,C]3 | %20
 [B,,B,][B,,B,][B,,F,] [B,,F,]3 | [C,F,][C,F,][C,F,] [C,A,]2 [C,B,] | %22
 [C,C]2 [C,A,] [C,B,]2 [C,A,] | [F,A,]4- [F,A,] |] %24
V:4
 x | x6 | x5 C, | C,2 (C, D,) x2 | x6 | x6 | x6 | C,2 x4 | x6 || x6 | x6 | x6 | x6 | x6 | x6 | x6 | %16
 x6 | x6 | x6 | x6 | x6 | x6 | x6 | x5 |] %24

